icons/_assets/share1.svg

<?xml version="1.0" encoding="UTF-8"?>
<svg width="100px" height="100px" viewBox="0 0 100 100" version="1.1" xmlns="http://www.w3.org/2000/svg" xmlns:xlink="http://www.w3.org/1999/xlink">
    <title>share / android</title>
    <g id="share-/-android" stroke="none" stroke-width="1" fill="none" fill-rule="evenodd">
        <path d="M0,100 L100,100 L100,0 L0,0 L0,100 Z M1.34215577,98.6578442 L98.6578442,98.6578442 L98.6578442,1.34215577 L1.34215577,1.34215577 L1.34215577,98.6578442 Z" id="outline" fill="#FFFFFF" opacity="0"></path>
        <path d="M70.9100571,74.1619326 C68.5133212,74.4342185 66.3151874,75.5341454 64.6007242,77.1422493 L36.1155045,58.6618597 C37.143642,56.6129763 37.7313422,54.3430291 37.7313422,52.0029885 C37.7313422,50.301876 37.4084449,48.7166873 36.8464144,47.2743812 L65.0046836,27.4379542 C67.1150001,29.4490951 70.1088934,30.522063 73.4405455,30.1432892 C79.8241853,29.4180923 85,23.6663912 85,17.2946332 C85,10.9255712 79.8241853,6.34928213 73.4405455,7.07582698 C67.0555546,7.80237184 61.8797399,13.554073 61.8797399,19.924483 C61.8797399,21.180772 62.0877993,22.3642718 62.4606849,23.456111 L34.2943094,43.2965818 C31.7530128,40.6882992 28.0282096,39.2716041 23.8656711,39.7447345 C16.2080053,40.6155099 10,47.5143162 10,55.1544948 C10,62.7946733 16.2080053,68.2835243 23.8656711,67.4127488 C27.5621026,66.9921885 30.9113181,65.1603249 33.3958712,62.5264313 L61.885144,81.0081689 C61.3217625,82.3129841 61.0002162,83.7242874 61.0002162,85.1746812 C61.0002162,90.6352252 65.4370148,94.5577586 70.9100571,93.9350059 C76.3830995,93.3136011 80.818547,88.3828013 80.818547,82.9222573 C80.818547,77.4617134 76.3830995,73.5405279 70.9100571,74.1619326" id="icon" fill="#000000"></path>
    </g>
</svg>

<svg width="100" height="100" xmlns="http://www.w3.org/2000/svg"><g id="share-/-android" stroke="none" stroke-width="1" fill="none" fill-rule="evenodd"><path d="M70.91 74.162c-2.397.272-4.595 1.372-6.31 2.98l-28.484-18.48c1.028-2.049 1.615-4.319 1.615-6.659 0-1.701-.323-3.286-.885-4.729l28.159-19.836c2.11 2.011 5.104 3.084 8.436 2.705C79.824 29.418 85 23.666 85 17.295c0-6.37-5.176-10.946-11.56-10.22-6.384.727-11.56 6.48-11.56 12.85 0 1.256.208 2.44.58 3.531l-28.166 19.84c-2.541-2.608-6.266-4.024-10.428-3.551-7.658.87-13.866 7.77-13.866 15.41 0 7.64 6.208 13.129 13.866 12.258 3.696-.42 7.045-2.253 9.53-4.887l28.49 18.482A10.512 10.512 0 0 0 61 85.175c0 5.46 4.437 9.383 9.91 8.76 5.473-.621 9.909-5.552 9.909-11.013 0-5.46-4.436-9.381-9.909-8.76" id="icon" fill="#000"/></g></svg>
